X: 31081
T: Paddy Fahey's
R: reel
M: 4/4
K: Dmixolydian
GA|:~B3d c2 dc|BG G^E D=E=FD|GABd c2 dc|
BG AF DG GA|(3Bcd Bd c2 dc|BG G^E D=E=FD|
GABd c2 dc|1 BG AF G2 GA:|2 BG AF G ABc||
|:dg ~g2 dgBg|dgag fdcA|c~=f3 cfAf|
c=fag ^fdcA|d~g3 dgBg|dgag fdef|
g2 agfd (3efg|1 fdcA GABc:|2 fdcA G2 GA||

